my-site/themes/moving-test/assets/images/facebook.svg

<svg width="59" height="56" viewBox="0 0 59 56" fill="none" xmlns="http://www.w3.org/2000/svg">
<path d="M29.0479 0.5C44.8397 0.50024 57.5947 12.6229 57.5947 27.5205C57.5946 42.4181 44.8396 54.5408 29.0479 54.541C13.2559 54.541 0.500115 42.4182 0.5 27.5205C0.5 12.6227 13.2558 0.5 29.0479 0.5Z" stroke="#838383"/>
<path d="M31.3204 41.302H25.2099V28.2836H22.1561V23.2689H25.2099V20.2595C25.2099 16.1701 26.934 13.7358 31.8339 13.7358H35.9115V18.7517H33.362C31.4548 18.7517 31.3278 19.452 31.3278 20.7601L31.3204 23.2683H35.9392L35.398 28.2836H31.3204V41.302Z" fill="white"/>
</svg>

<svg xmlns="http://www.w3.org/2000/svg" width="59" height="56" fill="none" viewBox="0 0 59 56"><path stroke="#838383" d="M29.048.5C44.84.5 57.595 12.623 57.595 27.52S44.84 54.54 29.048 54.542C13.256 54.541.5 42.418.5 27.521S13.256.5 29.048.5Z"/><path fill="#fff" d="M31.32 41.302h-6.11V28.284h-3.054v-5.015h3.054v-3.01c0-4.089 1.724-6.523 6.624-6.523h4.077v5.016h-2.549c-1.907 0-2.034.7-2.034 2.008l-.008 2.508h4.62l-.542 5.016H31.32z"/></svg>
